img/categories/election.svg

<?xml version="1.0"?>
<svg width="100" height="100" xmlns="http://www.w3.org/2000/svg" xmlns:svg="http://www.w3.org/2000/svg">
 <g>
  <title>Layer 1</title>
  <path id="svg_1" d="m70.129,54.295l-16.38,-15.817l34.373,-37.9l-22.106,0l-11.69,7.441l-17.265,0c-1.151,-0.018 -2.083,0.532 -2.685,1.409l-8.037,10.539c-0.375,0.496 -1.011,1.907 -0.516,3.223c0,0 0.221,0.81 0.562,2.065l6.847,-8.328c0.368,-0.45 1.03,-0.514 1.48,-0.144c0.255,0.208 0.386,0.509 0.386,0.812c0,0.236 -0.08,0.473 -0.242,0.668l-7.784,9.469c1.335,4.826 3.377,12.07 4.227,14.417l-8.921,9.182l10.055,9.71l-21.464,0l0,38.95l71.792,0l0,-38.95l-19.186,0l6.554,-6.746zm-33.656,-29.948c1.748,-1.448 4.033,-2.089 6.433,-1.809c3.517,0.414 6.369,3.177 6.935,6.712c0.269,1.702 0.023,2.993 -0.886,4.597l-4.949,-4.779l-3.085,3.175l-4.769,-7.574c0.112,-0.106 0.203,-0.225 0.321,-0.322zm-2.615,6.062l3.333,5.293c0.048,0.077 0.102,0.149 0.157,0.219l-1.405,1.446c-0.952,-2.76 -1.793,-5.504 -2.085,-6.958zm-7.321,20.856l17.535,-18.049l3.203,3.094c-0.633,0.831 -1.381,1.763 -2.272,2.857l-0.452,0.556c-1.041,1.286 -0.843,3.168 0.436,4.208c1.284,1.041 3.168,0.848 4.212,-0.436l2.577,-2.841l14.194,13.707l-6.49,6.68l-22.82,0l-10.123,-9.776z"/>
 </g>
</svg>

<svg xmlns="http://www.w3.org/2000/svg" xmlns:xlink="http://www.w3.org/1999/xlink" version="1.1" x="0px" y="0px" viewBox="0 0 100 125" enable-background="new 0 0 100 100" xml:space="preserve"><path d="M70.129,54.295l-16.38-15.817l34.373-37.9H66.016l-11.69,7.441H37.061c-1.151-0.018-2.083,0.532-2.685,1.409l-8.037,10.539  c-0.375,0.496-1.011,1.907-0.516,3.223c0,0,0.221,0.81,0.562,2.065l6.847-8.328c0.368-0.45,1.03-0.514,1.48-0.144  c0.255,0.208,0.386,0.509,0.386,0.812c0,0.236-0.08,0.473-0.242,0.668l-7.784,9.469c1.335,4.826,3.377,12.07,4.227,14.417  l-8.921,9.182l10.055,9.71H10.969v38.95h71.792v-38.95H63.575L70.129,54.295z M36.473,24.347c1.748-1.448,4.033-2.089,6.433-1.809  c3.517,0.414,6.369,3.177,6.935,6.712c0.269,1.702,0.023,2.993-0.886,4.597l-4.949-4.779l-3.085,3.175l-4.769-7.574  C36.264,24.563,36.355,24.444,36.473,24.347z M33.858,30.409l3.333,5.293c0.048,0.077,0.102,0.149,0.157,0.219l-1.405,1.446  C34.991,34.607,34.15,31.863,33.858,30.409z M26.537,51.265l17.535-18.049l3.203,3.094c-0.633,0.831-1.381,1.763-2.272,2.857  l-0.452,0.556c-1.041,1.286-0.843,3.168,0.436,4.208c1.284,1.041,3.168,0.848,4.212-0.436l2.577-2.841l14.194,13.707l-6.49,6.68  H36.66L26.537,51.265z"/><text x="0" y="115" fill="#000000" font-size="5px" font-weight="bold" font-family="'Helvetica Neue', Helvetica, Arial-Unicode, Arial, Sans-serif">Created by Luis Prado</text><text x="0" y="120" fill="#000000" font-size="5px" font-weight="bold" font-family="'Helvetica Neue', Helvetica, Arial-Unicode, Arial, Sans-serif">from the Noun Project</text></svg>
